actions/16/system-upgrade.svg

<?xml version="1.0" encoding="UTF-8" standalone="no"?>
<!-- Created with Inkscape (http://www.inkscape.org/) -->

<svg
   xmlns:dc="http://purl.org/dc/elements/1.1/"
   xmlns:cc="http://creativecommons.org/ns#"
   xmlns:rdf="http://www.w3.org/1999/02/22-rdf-syntax-ns#"
   xmlns:svg="http://www.w3.org/2000/svg"
   xmlns="http://www.w3.org/2000/svg"
   xmlns:sodipodi="http://sodipodi.sourceforge.net/DTD/sodipodi-0.dtd"
   xmlns:inkscape="http://www.inkscape.org/namespaces/inkscape"
   width="16.000004"
   height="16.000004"
   id="svg13094"
   version="1.1"
   inkscape:version="0.48.3.1 r9886"
   sodipodi:docname="system-upgrade.svg">
  <sodipodi:namedview
     id="base"
     pagecolor="#ffffff"
     bordercolor="#666666"
     borderopacity="1.0"
     inkscape:pageopacity="0.0"
     inkscape:pageshadow="2"
     inkscape:zoom="45.254837"
     inkscape:cx="4.997776"
     inkscape:cy="8.1089139"
     inkscape:document-units="px"
     inkscape:current-layer="svg13094"
     showgrid="true"
     inkscape:snap-bbox="true"
     inkscape:bbox-paths="true"
     inkscape:bbox-nodes="true"
     inkscape:snap-bbox-edge-midpoints="true"
     inkscape:snap-bbox-midpoints="true"
     inkscape:object-paths="true"
     inkscape:snap-intersection-paths="true"
     inkscape:object-nodes="true"
     inkscape:snap-smooth-nodes="true"
     inkscape:snap-midpoints="true"
     inkscape:snap-object-midpoints="true"
     inkscape:snap-center="true"
     showguides="true"
     inkscape:guide-bbox="true"
     inkscape:window-width="1920"
     inkscape:window-height="1023"
     inkscape:window-x="-10"
     inkscape:window-y="35"
     inkscape:window-maximized="1"
     inkscape:snap-global="true"
     fit-margin-top="0"
     fit-margin-left="0"
     fit-margin-right="0"
     fit-margin-bottom="0"
     showborder="true"
     inkscape:showpageshadow="false">
    <inkscape:grid
       type="xygrid"
       id="grid3075"
       empspacing="5"
       visible="true"
       enabled="true"
       snapvisiblegridlinesonly="true"
       originx="1.6362304e-08px"
       originy="18px" />
  </sodipodi:namedview>
  <defs
     id="defs13096" />
  <metadata
     id="metadata13099">
    <rdf:RDF>
      <cc:Work
         rdf:about="">
        <dc:format>image/svg+xml</dc:format>
        <dc:type
           rdf:resource="http://purl.org/dc/dcmitype/StillImage" />
        <dc:title />
      </cc:Work>
    </rdf:RDF>
  </metadata>
  <path
     style="font-size:medium;font-style:normal;font-variant:normal;font-weight:normal;font-stretch:normal;text-indent:0;text-align:start;text-decoration:none;line-height:normal;letter-spacing:normal;word-spacing:normal;text-transform:none;direction:ltr;block-progression:tb;writing-mode:lr-tb;text-anchor:start;baseline-shift:baseline;color:#000000;fill:#485462;fill-opacity:0.7;fill-rule:nonzero;stroke:none;stroke-width:2;marker:none;visibility:visible;display:inline;overflow:visible;enable-background:accumulate;font-family:Sans;-inkscape-font-specification:Sans"
     d="M 8,-0.75 3.75,5 5,5 8,1 11,5 12.25,5 z M 6,5 6,9 6,10 10,10 10,9 10,5 9,5 9,9 7,9 7,5 z"
     id="path3807"
     inkscape:connector-curvature="0"
     sodipodi:nodetypes="cccccccccccccccccc" />
  <path
     style="font-size:medium;font-style:normal;font-variant:normal;font-weight:normal;font-stretch:normal;text-indent:0;text-align:start;text-decoration:none;line-height:normal;letter-spacing:normal;word-spacing:normal;text-transform:none;direction:ltr;block-progression:tb;writing-mode:lr-tb;text-anchor:start;baseline-shift:baseline;color:#000000;fill:#EDEFF3;fill-opacity:0.758;fill-rule:nonzero;stroke:none;stroke-width:2.39999914;marker:none;visibility:visible;display:inline;overflow:visible;enable-background:accumulate;font-family:Sans;-inkscape-font-specification:Sans"
     d="m 8,1.0000038 -3,4 2,0 2.512e-4,3.9999863 2.0000005,0 L 9,5.0000038 l 2,0 z"
     id="path3132"
     inkscape:connector-curvature="0"
     sodipodi:nodetypes="cccccccc" />
  <path
     style="color:#000000;fill:#EDEFF3;fill-opacity:0.758;fill-rule:nonzero;stroke:none;stroke-width:2;marker:none;visibility:visible;display:inline;overflow:visible;enable-background:accumulate"
     d="M 1.71875 6 L 2.875 7 C 2.81244 7.3253897 2.75 7.65618 2.75 8 C 2.75 8.34382 2.8122412 8.6746103 2.875 9 L 1.6875 10.03125 C 1.5154113 10.188404 1.3452889 10.481957 1.5 10.75 L 2.375 12.28125 C 2.5182914 12.51853 2.8156077 12.545142 3.09375 12.46875 L 4.5625 11.96875 C 5.0616864 12.402885 5.64334 12.71574 6.28125 12.9375 L 6.5625 14.46875 C 6.612151 14.696229 6.8155778 15 7.125 15 L 8.875 15 C 9.15205 14.995 9.3648116 14.747845 9.4375 14.46875 L 9.71875 12.9375 C 10.356759 12.71574 10.938313 12.402885 11.4375 11.96875 L 12.90625 12.46875 C 13.128287 12.53906 13.470189 12.549313 13.625 12.28125 L 14.5 10.75 C 14.633858 10.507358 14.517753 10.233973 14.3125 10.03125 L 13.125 9 C 13.18855 8.6746103 13.25 8.34382 13.25 8 C 13.25 7.65618 13.18776 7.3253897 13.125 7 L 14.28125 6 L 10.6875 6 C 11.102235 6.5569174 11.34375 7.2493482 11.34375 8 C 11.34375 9.8521163 9.8521163 11.34375 8 11.34375 C 6.1478837 11.34375 4.65625 9.8521163 4.65625 8 C 4.65625 7.2493482 4.8977649 6.5569174 5.3125 6 L 1.71875 6 z "
     id="path3809" />
  <path
     style="font-size:medium;font-style:normal;font-variant:normal;font-weight:normal;font-stretch:normal;text-indent:0;text-align:start;text-decoration:none;line-height:normal;letter-spacing:normal;word-spacing:normal;text-transform:none;direction:ltr;block-progression:tb;writing-mode:lr-tb;text-anchor:start;baseline-shift:baseline;color:#000000;fill:#485462;fill-opacity:0.7;fill-rule:nonzero;stroke:none;stroke-width:2;marker:none;visibility:visible;display:inline;overflow:visible;enable-background:accumulate;font-family:Sans;-inkscape-font-specification:Sans"
     d="M 14 2.46875 L 14 4.25 L 14.5625 5.25 C 14.7183 5.51992 14.5483 5.81049 14.375 5.96875 L 13.1875 6.96875 C 13.2507 7.29643 13.28125 7.65376 13.28125 8 C 13.28125 8.34624 13.2515 8.70357 13.1875 9.03125 L 14.375 10.03125 C 14.5817 10.2354 14.6973 10.50565 14.5625 10.75 L 13.6875 12.28125 C 13.5316 12.5512 13.1611 12.5708 12.9375 12.5 L 11.46875 12 C 10.96605 12.43719 10.3925 12.74543 9.75 12.96875 L 9.4375 14.53125 C 9.3643 14.81231 9.154 15.0575 8.875 15.0625 L 7.125 15.0625 C 6.8134 15.0625 6.6125 14.76033 6.5625 14.53125 L 6.25 12.96875 C 5.6076 12.74543 5.03395 12.43719 4.53125 12 L 3.0625 12.5 C 2.7824 12.57693 2.4568 12.5202 2.3125 12.28125 L 1.4375 10.75 C 1.2817 10.48007 1.4517 10.18951 1.625 10.03125 L 2.8125 9.03125 C 2.7493 8.70357 2.71875 8.34624 2.71875 8 C 2.71875 7.65376 2.7495 7.29643 2.8125 6.96875 L 1.625 5.96875 C 1.4183 5.7646 1.3027 5.49435 1.4375 5.25 L 2 4.25 L 2 2.5 C 1.7320994 2.6341618 1.4571499 2.8202841 1.28125 3.125 L 0.46875 4.5625 L 0.4375 4.59375 C 0.4259667 4.60296 0.4154639 4.613467 0.40625 4.625 C 0.40543083 4.635395 0.40543083 4.645855 0.40625 4.65625 C 0.3958548 4.6554308 0.3853952 4.6554308 0.375 4.65625 C 0.13544844 5.0903575 0.15933811 5.6167192 0.28125 6 C 0.39768394 6.365364 0.60773256 6.6415975 0.8125 6.84375 C 0.8228952 6.8445692 0.8333548 6.8445692 0.84375 6.84375 C 0.852964 6.855283 0.8634667 6.865786 0.875 6.875 C 0.8853952 6.8758192 0.8958548 6.8758192 0.90625 6.875 L 1.59375 7.5 C 1.572158 7.6518118 1.53125 7.8092789 1.53125 8 C 1.53125 8.1907211 1.572158 8.3481882 1.59375 8.5 L 0.9375 9.09375 L 0.90625 9.09375 C 0.8947167 9.10296 0.8842139 9.113467 0.875 9.125 C 0.8646048 9.1241808 0.8541452 9.1241808 0.84375 9.125 C 0.84293083 9.135395 0.84293083 9.145855 0.84375 9.15625 C 0.8333548 9.1554308 0.8228952 9.1554308 0.8125 9.15625 C 0.81168083 9.166645 0.81168083 9.177105 0.8125 9.1875 C 0.8009667 9.19671 0.7904639 9.207217 0.78125 9.21875 C 0.78043083 9.229145 0.78043083 9.239605 0.78125 9.25 C 0.60904001 9.4134119 0.40000779 9.6133651 0.28125 9.9375 C 0.13649322 10.332268 0.13544302 10.87468 0.40625 11.34375 L 1.28125 12.84375 L 1.28125 12.875 C 1.29046 12.88653 1.300967 12.89704 1.3125 12.90625 C 1.5776692 13.345588 2.0154659 13.605299 2.40625 13.6875 C 2.763039 13.76252 3.0768802 13.6948 3.34375 13.625 L 3.375 13.625 L 3.40625 13.625 C 3.416645 13.625819 3.427105 13.625819 3.4375 13.625 C 3.447895 13.625819 3.458355 13.625819 3.46875 13.625 L 4.40625 13.28125 C 4.6665793 13.45431 4.9390352 13.617336 5.21875 13.75 L 5.40625 14.71875 L 5.40625 14.75 C 5.4054308 14.76039 5.4054308 14.77085 5.40625 14.78125 C 5.473811 15.089829 5.5900727 15.375912 5.84375 15.65625 C 6.1102063 15.95071 6.5775956 16.25 7.125 16.25 L 8.875 16.25 L 8.90625 16.25 C 9.3779372 16.241 9.7810937 16.056582 10.0625 15.78125 C 10.343906 15.505918 10.509741 15.166432 10.59375 14.84375 C 10.594569 14.83335 10.594569 14.82289 10.59375 14.8125 C 10.594569 14.8021 10.594569 14.79164 10.59375 14.78125 L 10.59375 14.75 L 10.59375 14.71875 L 10.78125 13.75 C 11.06096 13.617332 11.333419 13.45431 11.59375 13.28125 L 12.53125 13.625 C 12.54165 13.625819 12.5521 13.625819 12.5625 13.625 C 12.5729 13.625819 12.58335 13.625819 12.59375 13.625 C 12.60325 13.6279 12.61541 13.6222 12.625 13.625 C 12.886691 13.70047 13.182619 13.746197 13.53125 13.6875 C 13.93144 13.62016 14.434955 13.366428 14.71875 12.875 L 15.53125 11.4375 C 15.54278 11.4283 15.55329 11.41778 15.5625 11.40625 C 15.57403 11.39705 15.58454 11.38653 15.59375 11.375 C 15.594569 11.3646 15.594569 11.35414 15.59375 11.34375 C 15.60415 11.344569 15.6146 11.344569 15.625 11.34375 C 15.864435 10.909735 15.840665 10.383361 15.71875 10 C 15.602247 9.6347001 15.392544 9.358527 15.1875 9.15625 C 15.1771 9.1554308 15.16665 9.1554308 15.15625 9.15625 C 15.14705 9.144717 15.13653 9.134214 15.125 9.125 L 15.09375 9.125 L 14.40625 8.5 C 14.42784 8.3481882 14.46875 8.1907211 14.46875 8 C 14.46875 7.8092789 14.42784 7.6518118 14.40625 7.5 L 15.0625 6.90625 L 15.125 6.875 C 15.1354 6.8758192 15.14585 6.8758192 15.15625 6.875 C 15.157069 6.864605 15.157069 6.854145 15.15625 6.84375 C 15.16575 6.83512 15.17787 6.821397 15.1875 6.8125 C 15.1979 6.8133192 15.20835 6.8133192 15.21875 6.8125 C 15.22365 6.80798 15.21385 6.785842 15.21875 6.78125 C 15.219569 6.770855 15.219569 6.760395 15.21875 6.75 C 15.39087 6.5866105 15.599904 6.3866074 15.71875 6.0625 C 15.863375 5.6677643 15.864438 5.1253126 15.59375 4.65625 L 14.71875 3.15625 C 14.719569 3.145855 14.719569 3.135395 14.71875 3.125 C 14.70955 3.113467 14.69903 3.102964 14.6875 3.09375 C 14.511709 2.8026213 14.263427 2.6027523 14 2.46875 z "
     id="path3807-2" />
</svg>

<?xml version="1.0" encoding="UTF-8"?>
<svg id="b" width="16" height="16" version="1.1" xmlns="http://www.w3.org/2000/svg" xmlns:cc="http://creativecommons.org/ns#" xmlns:dc="http://purl.org/dc/elements/1.1/" xmlns:rdf="http://www.w3.org/1999/02/22-rdf-syntax-ns#">
	<metadata id="f">
		<rdf:RDF>
			<cc:Work rdf:about="">
				<dc:format>image/svg+xml</dc:format>
				<dc:type rdf:resource="http://purl.org/dc/dcmitype/StillImage"/>
				<dc:title/>
			</cc:Work>
		</rdf:RDF>
	</metadata>
	<path id="e" d="m8-0.75-4.25 5.75h1.25l3-4 3 4h1.25l-4.25-5.75zm6 3.2188v1.7812l0.5625 1c0.1558 0.26992-0.0142 0.56049-0.1875 0.71875l-1.1875 1c0.0632 0.32768 0.09375 0.68506 0.09375 1.0312s-0.02975 0.70362-0.09375 1.0312l1.1875 1c0.2067 0.20415 0.3223 0.4744 0.1875 0.71875l-0.875 1.5312c-0.1559 0.26995-0.5264 0.28955-0.75 0.21875l-1.4688-0.5c-0.5027 0.43719-1.0762 0.74543-1.7188 0.96875l-0.3125 1.5625c-0.0732 0.28106-0.2835 0.52625-0.5625 0.53125h-1.75c-0.3116 0-0.5125-0.30217-0.5625-0.53125l-0.3125-1.5625c-0.6424-0.22332-1.216-0.53156-1.7188-0.96875l-1.4688 0.5c-0.2801 0.07693-0.6057 0.0202-0.75-0.21875l-0.875-1.5312c-0.1558-0.26993 0.0142-0.56049 0.1875-0.71875l1.1875-1c-0.0632-0.32768-0.09375-0.68506-0.09375-1.0312s0.03075-0.70362 0.09375-1.0312l-1.1875-1c-0.2067-0.20415-0.3223-0.4744-0.1875-0.71875l0.5625-1v-1.75c-0.2679 0.13416-0.54285 0.32028-0.71875 0.625l-0.8125 1.4375-0.03125 0.03125c-0.011533 0.00921-0.022036 0.019717-0.03125 0.03125-8.1917e-4 0.010395-8.1917e-4 0.020855 0 0.03125-0.010395-8.192e-4 -0.020855-8.192e-4 -0.03125 0-0.23955 0.43411-0.21566 0.96042-0.09375 1.3438 0.11643 0.36536 0.32648 0.6416 0.53125 0.84375 0.010395 8.192e-4 0.020855 8.192e-4 0.03125 0 0.009214 0.011533 0.019717 0.022036 0.03125 0.03125 0.010395 8.192e-4 0.020855 8.192e-4 0.03125 0l0.6875 0.625c-0.021592 0.15181-0.0625 0.30928-0.0625 0.5s0.040908 0.34819 0.0625 0.5l-0.65625 0.59375h-0.03125c-0.011533 0.00921-0.022036 0.019717-0.03125 0.03125-0.010395-8.192e-4 -0.020855-8.192e-4 -0.03125 0-8.1917e-4 0.010395-8.1917e-4 0.020855 0 0.03125-0.010395-8.192e-4 -0.020855-8.192e-4 -0.03125 0-8.1917e-4 0.010395-8.1917e-4 0.020855 0 0.03125-0.011533 0.00921-0.022036 0.019717-0.03125 0.03125-8.1917e-4 0.010395-8.1917e-4 0.020855 0 0.03125-0.17221 0.16341-0.38124 0.36337-0.5 0.6875-0.14476 0.39477-0.14581 0.93723 0.125 1.4062l0.875 1.5v0.03125c0.00921 0.01153 0.019717 0.02204 0.03125 0.03125 0.26517 0.43934 0.70292 0.69905 1.0938 0.78125 0.35679 0.07502 0.67063 0.0073 0.9375-0.0625h0.03125 0.03125c0.010395 8.19e-4 0.020855 8.19e-4 0.03125 0 0.010395 8.19e-4 0.020855 8.19e-4 0.03125 0l0.9375-0.34375c0.26033 0.17306 0.53279 0.33609 0.8125 0.46875l0.1875 0.96875v0.03125c-8.192e-4 0.01039-8.192e-4 0.02085 0 0.03125 0.067561 0.30858 0.18382 0.59466 0.4375 0.875 0.26646 0.29446 0.7339 0.59375 1.2812 0.59375h1.75 0.03125c0.47169-9e-3 0.87489-0.19342 1.1562-0.46875 0.28141-0.27533 0.44724-0.61482 0.53125-0.9375 8.19e-4 -0.0104 8.19e-4 -0.02086 0-0.03125 8.19e-4 -0.0104 8.19e-4 -0.02086 0-0.03125v-0.03125-0.03125l0.1875-0.96875c0.27971-0.13267 0.55217-0.29569 0.8125-0.46875l0.9375 0.34375c0.0104 8.19e-4 0.02085 8.19e-4 0.03125 0 0.0104 8.19e-4 0.02085 8.19e-4 0.03125 0 0.0095 0.0029 0.02166-0.0028 0.03125 0 0.26169 0.07547 0.55762 0.1212 0.90625 0.0625 0.40019-0.06734 0.9037-0.32107 1.1875-0.8125l0.8125-1.4375c0.01153-0.0092 0.02204-0.01972 0.03125-0.03125 0.01153-0.0092 0.02204-0.01972 0.03125-0.03125 8.19e-4 -0.0104 8.19e-4 -0.02086 0-0.03125 0.0104 8.19e-4 0.02085 8.19e-4 0.03125 0 0.23944-0.43402 0.21566-0.96034 0.09375-1.3438-0.1165-0.3653-0.32621-0.64147-0.53125-0.84375-0.0104-8.192e-4 -0.02085-8.192e-4 -0.03125 0-0.0092-0.011533-0.01972-0.022036-0.03125-0.03125h-0.03125l-0.6875-0.625c0.02159-0.15181 0.0625-0.30928 0.0625-0.5s-0.04091-0.34819-0.0625-0.5l0.65625-0.59375 0.0625-0.03125c0.0104 8.192e-4 0.02085 8.192e-4 0.03125 0 8.19e-4 -0.010395 8.19e-4 -0.020855 0-0.03125 0.0095-0.00863 0.02162-0.022353 0.03125-0.03125 0.0104 8.192e-4 0.02085 8.192e-4 0.03125 0 0.0049-0.00452-0.0049-0.026658 0-0.03125 8.19e-4 -0.010395 8.19e-4 -0.020855 0-0.03125 0.17212-0.16339 0.38115-0.36339 0.5-0.6875 0.14462-0.39474 0.14569-0.93724-0.125-1.4062l-0.875-1.5c8.19e-4 -0.010395 8.19e-4 -0.020855 0-0.03125-0.0092-0.011533-0.01972-0.022036-0.03125-0.03125-0.17579-0.29113-0.42407-0.491-0.6875-0.625zm-8 2.5312v4 1h4v-1-4h-1v4h-2v-4h-1z" style="fill-opacity:.5;fill:currentColor" class="ColorScheme-Background"/>
	<path id="d" d="m8 1-3 4h2v4h2v-4h2l-3-4zm-6.2812 5 1.1562 1c-0.06256 0.32539-0.125 0.65618-0.125 1s0.062241 0.67461 0.125 1l-1.1875 1.0312c-0.17209 0.15715-0.34221 0.45071-0.1875 0.71875l0.875 1.5312c0.14329 0.23728 0.44061 0.26389 0.71875 0.1875l1.4688-0.5c0.49919 0.43414 1.0808 0.74699 1.7188 0.96875l0.28125 1.5312c0.049651 0.22748 0.25308 0.53125 0.5625 0.53125h1.75c0.27705-5e-3 0.48981-0.25216 0.5625-0.53125l0.28125-1.5312c0.63801-0.22176 1.2196-0.53462 1.7188-0.96875l1.4688 0.5c0.22204 0.07031 0.56394 0.080563 0.71875-0.1875l0.875-1.5312c0.13386-0.24264 0.017753-0.51603-0.1875-0.71875l-1.1875-1.0312c0.06355-0.32539 0.125-0.65618 0.125-1s-0.06224-0.67461-0.125-1l1.1562-1h-3.5938c0.41474 0.55692 0.65625 1.2493 0.65625 2 0 1.8521-1.4916 3.3438-3.3438 3.3438s-3.3438-1.4916-3.3438-3.3438c0-0.75065 0.24151-1.4431 0.65625-2h-3.5938z" style="fill-opacity:.75;fill:currentColor" class="ColorScheme-Text"/>
</svg>
